!!!!SEGMENT: pl-sa--29-a-i-29--004_konigsperger-marianus--vesperae-ex-d-laetatus-sum.krn
!!!cenid: 17xx:541
!!!COM: Königsperger, Marianus
!!!COM-rismID: pe367346
!!!CDT: 1708/12/02-1769/10/09
!!!CNT: German
!!!OPR: Vesperae ex D
!!!OTL: Laetatus sum
!!!OMV: 004
!!!PDT:
!!!AGN: Sacred; Vespers
!!!SMS-siglum: PL-SA
!!!SMS-shelfmark: 29/A I 29
!!!SMS-shelfwork: 001-004 M
!!!SMS-variant:
!!!SMS-altvar:
!!!NIFC-rismSourceID: 1001068253
!!!NIFC-islandoraID:
!!!URL-pdf-islandora:
!!!URL-scan: https://bc.bdsandomierz.pl/dlibra/publication/1262/edition/1230/content @EN{Scan in the Sandomierz Diocese Digital Library} @PL{Skany w portalu Cyfrowa Biblioteka Diecezjalna w Sandomierzu}
!!!ONB-nifc: UWAGA: części Vesperae: Domine ad adjuvandum, Dixit Dominus, Laudate pueri, Laetatus sum, Nisi Dominus, Lauda Jerusalem, Magnificat
!!!AIN: 3 empty 1 organ 2 violn 1 vox
!!!key:
**kern	**fba	**kern	**kern	**kern	**text	**kern	**text	**kern	**kern
*part7	*	*part6	*part5	*part4	*part4	*part3	*part3	*part2	*part1
*	*	*group3	*group3	*group2	*	*group2	*	*group1	*group1
*staff7	*	*staff6	*staff5	*staff4	*staff4	*staff3	*staff3	*staff2	*staff1
*Iorgan	*	*Ivioln	*Ivioln	*Iempty	*	*Ivox	*	*Iempty	*Iempty
*I"Organo	*	*I"Violino 2do	*I"Violino 1mo	*I"Baſso.	*	*I"Canto	*	*I"Clarino 2do Ex D.	*I"Clarino 1mo Ex D.
*I'org	*	*I'vl 2	*I'vl 1	*I'B	*	*I'S	*	*I'clno 2	*I'clno 1
*clefF4	*	*clefG2	*clefG2	*clefF4	*	*clefC1	*	*clefG2	*clefG2
*	*	*	*	*	*	*	*	*ITrd-1c-2	*ITrd-1c-2
*k[f#c#]	*	*k[f#c#]	*k[f#c#]	*k[f#c#]	*	*k[f#c#]	*	*k[f#c#]	*k[f#c#]
*D:	*	*D:	*D:	*D:	*	*D:	*	*D:	*D:
*M3/8	*	*M3/8	*M3/8	*M3/8	*	*M3/8	*	*M3/8	*M3/8
=1	=1	=1	=1	=1	=1	=1	=1	=1	=1
!	!	!LO:TX:b:t=Letatus	!LO:TX:b:t=Letatus.	!	!	!LO:TX:a:t=P:problem= krzyżyki cc# f#	!	!LO:TX:b:i:t=Letatus sum	!LO:TX:b:i:t=Letatus sum
!	!	!	!	!LO:TX:b:t=P:problem="L" przed kluczem	!	!LO:TX:b:t=P:problem="L" przed kluczem	!	!LO:N:vis=0	!LO:N:vis=0
8D\L	.	8d/L	8d/L	8D\	(L)e-	8dd\	(L)ae-	2.r	2.r
8G\	.	8g/	8g/	8G\	-ta-	8ee\	-ta-	.	.
8A\J	.	8a/J	8a/J	8E\	-tus	8cc#\	-tus	.	.
=2	=2	=2	=2	=2	=2	=2	=2	=2	=2
4D\	.	8d/L	8d/L	4F#\	ſum	4dd\	sum	.	.
.	.	(16a/L	16a/L	.	.	.	.	.	.
.	.	16f#/J)	16f#/J	.	.	.	.	.	.
8r	.	8d/J	8d/J	8r	.	8r	.	.	.
=3	=3	=3	=3	=3	=3	=3	=3	=3	=3
!	!	!	!LO:SIC:v:s=8dd	!	!	!	!	!	!
!	!	!LO:TX:a:t=P:problem=mixed beam	!LO:TX:a:t=P:problem=mixed beam	!	!	!	!	!	!
*	*	*	*	*	*ij	*	*	*	*
8D\L	.	8dd\L	8ee\L	8d\	Le-	8ff#\	lae-	4.r	4.r
8G\	.	8g/	8g/	8e\	-ta-	8gg\	-ta-	.	.
8A\J	.	8a/J	8a/J	8c#\	-tus	8ee\	-tus	.	.
=4	=4	=4	=4	=4	=4	=4	=4	=4	=4
8D\	.	(16dd\LL	8dd\L	4d\	ſum	4ff#\	sum	16f#/LL	16dd\LL
*	*	*	*	*	*Xij	*	*	*	*
.	.	16ff#\J)	.	.	.	.	.	16dd/JJ	16ff#\JJ
8r	.	8aa\	16ff#\L	.	.	.	.	8ff#\L	8aa\L
.	.	.	16aa\J	.	.	.	.	.	.
8F#\	.	8dd\J	8dd\J	8r	.	8r	.	8dd\J	8ff#\J
=5	=5	=5	=5	=5	=5	=5	=5	=5	=5
!LO:TX:a:t=P:problem=mixed beam	!	!	!	!LO:N:vis=00	!	!LO:N:vis=00	!	!	!
8A\L	.	8e/L	8cc#\L	1.r	.	1.r	.	8a/L	8ee\L
8D\J	.	8f#/J	8dd\J	.	.	.	.	8f#/J	8dd\J
8r	.	8r	8r	.	.	.	.	8r	8r
=6	=6	=6	=6	=6	=6	=6	=6	=6	=6
!LO:TX:a:t=P:problem=mixed beam	!	!	!	!	!	!	!	!	!
!	!	!	!	!	!	!	!	!LO:N:vis=0	!LO:N:vis=0
8G/L	.	(16b\LL	16b\LL	.	.	.	.	2.r	2.r
.	.	16cc#\JJ)	16cc#\JJ	.	.	.	.	.	.
8GG/	.	4ddT\	4ddT\	.	.	.	.	.	.
8G/J	.	.	.	.	.	.	.	.	.
=7	=7	=7	=7	=7	=7	=7	=7	=7	=7
8r	.	(16a\LL	16a\LL	.	.	.	.	.	.
.	.	16cc#\JJ)	16cc#\JJ	.	.	.	.	.	.
8F#\L	.	4ddT\	4ddT\	.	.	.	.	.	.
8D\J	.	.	.	.	.	.	.	.	.
=8	=8	=8	=8	=8	=8	=8	=8	=8	=8
!	!	!	!LO:TX:a:t=P:problem=mixed beam	!	!	!	!	!LO:TX:a:t=P:problem=mixed beam	!
8C#/L	.	8a\L	8a/L	.	.	.	.	8a/L	8ee\L
!	!	!	!	!	!	!	!	!LO:SIC:v:s=8dd	!
8C#/	.	8ee\	8gg\	.	.	.	.	8ff#\	8gg\
8D/J	.	[8dd\J	[>8ff#\J	.	.	.	.	8dd\J	8ff#\J
=9	=9	=9	=9	=9	=9	=9	=9	=9	=9
!	!	!	!	!	!LO:N:vis=00	!LO:N:vis=00	!	!	!
8A\L	.	8dd\]	8ff#\L]	1.r	.	1.r	.	8a/L	8ff#\L
8A\J	.	4cc#\	8ee\J	.	.	.	.	8a/J	8ee\J
8r	.	.	8r	.	.	.	.	8r	8r
=10	=10	=10	=10	=10	=10	=10	=10	=10	=10
!	!	!	!	!	!	!	!	!LO:N:vis=00	!LO:N:vis=00
8F#\L	.	32aa\LLL	32aa\LLL	.	.	.	.	1.r	1.r
.	.	32gg\	(32gg\	.	.	.	.	.	.
.	.	32ff#\	32ff#\)	.	.	.	.	.	.
.	.	32ee\JJJ	32ee\JJJ	.	.	.	.	.	.
8F#\	.	32ff#\LLL	32ff#\LLL	.	.	.	.	.	.
.	.	32ee\	(32ee\	.	.	.	.	.	.
.	.	32dd\	32dd\)	.	.	.	.	.	.
.	.	32cc#\JJJ	32cc#\JJJ	.	.	.	.	.	.
!	!	!LO:LB:g=original	!	!	!	!	!	!	!
8F#\J	.	32dd\LLL	32dd\LLL	.	.	.	.	.	.
.	.	32ccn\	(32ccn\	.	.	.	.	.	.
.	.	32b\	32b\)	.	.	.	.	.	.
.	.	32a\JJJ	32a\JJJ	.	.	.	.	.	.
!	!	!	!LO:LB:g=original	!	!	!	!	!	!
=11	=11	=11	=11	=11	=11	=11	=11	=11	=11
!	!	!LO:TX:a:t=P:problem=mixed beam	!LO:TX:a:t=P:problem=mixed beam	!	!	!	!	!	!
4G\	.	8b\L	8b\L	.	.	.	.	.	.
.	.	8dd\	8dd\	.	.	.	.	.	.
8r	.	8g/J	8g/J	.	.	.	.	.	.
=12	=12	=12	=12	=12	=12	=12	=12	=12	=12
8G#X\L	.	32bb\LLL	32bb\LLL	.	.	.	.	.	.
.	.	32aa\	(32aa\	.	.	.	.	.	.
.	.	(32gg#X\	32gg#X\)	.	.	.	.	.	.
.	.	32ff#\JJJ)	32ff#\JJJ	.	.	.	.	.	.
8G#\	.	32gg#X\LLL	32gg#X\LLL	.	.	.	.	.	.
.	.	(32ff#\	(32ff#\	.	.	.	.	.	.
.	.	32ee\)	32ee\)	.	.	.	.	.	.
!	!	!	!LO:SIC:v:s=32dd#	!	!	!	!	!	!
.	.	32dd#X\JJJ	32dd\JJJ	.	.	.	.	.	.
8G#\J	.	32ee\LLL	32ee\LLL	.	.	.	.	.	.
.	.	(32ddn\	(32ddn\	.	.	.	.	.	.
.	.	32cc#\)	32cc#\)	.	.	.	.	.	.
.	.	32b\JJJ	32b\JJJ	.	.	.	.	.	.
=13	=13	=13	=13	=13	=13	=13	=13	=13	=13
!	!	!LO:TX:a:t=P:problem=mixed beam	!LO:TX:a:t=P:problem=mixed beam	!LO:N:vis=00	!	!LO:N:vis=00	!	!	!
4A\	.	8cc#\L	8cc#\L	1.r	.	1.r	.	.	.
.	.	8ee\	8ee\	.	.	.	.	.	.
8r	.	8a/J	8a/J	.	.	.	.	.	.
=14	=14	=14	=14	=14	=14	=14	=14	=14	=14
!	!	!	!LO:TX:a:t=P:problem=mixed beam	!	!	!	!	!	!
8C#/L	.	8cc#\L	8a/L	.	.	.	.	8r	8r
8C#/	.	8ee\	8gg\	.	.	.	.	8ee\L	8gg\L
8D/J	.	8dd\J	8ff#\J	.	.	.	.	8dd\J	8ff#\J
=15	=15	=15	=15	=15	=15	=15	=15	=15	=15
8r	.	8a\L	8a\L	.	.	.	.	8r	8r
8A\L	.	8cc#\	8ee\	.	.	.	.	8a/L	8ee\L
8F#\J	.	8dd\J	8dd\J	.	.	.	.	8d/J	8dd\J
=16	=16	=16	=16	=16	=16	=16	=16	=16	=16
!	!	!	!LO:TX:a:t=P:problem=mixed beam	!	!	!	!	!	!
8C#/L	.	8cc#\L	8g/L	.	.	.	.	8r	8r
8C#/	.	8ee\	8gg\	.	.	.	.	8ee\L	8gg\L
8D/J	.	8dd\J	8ff#\J	.	.	.	.	8dd\J	8ff#\J
=17	=17	=17	=17	=17	=17	=17	=17	=17	=17
!	!	!	!LO:TX:a:t=P:problem=mixed beam	!LO:N:vis=0	!	!LO:N:vis=0	!	!	!
8r	.	8a\L	8a/L	2.r	.	2.r	.	8r	8r
8A\L	.	8cc#\	8ee\	.	.	.	.	8a/L	8ee\L
8F#\J	.	8dd\J	8dd\J	.	.	.	.	8d/J	8dd\J
=18	=18	=18	=18	=18	=18	=18	=18	=18	=18
!LO:TX:a:t=P:problem=mixed beam	!	!	!	!	!	!	!	!LO:TX:a:t=P:problem=mixed beam	!
8G\L	.	8ee\L	8b\L	.	.	.	.	8dd\L	8ff#\L
8A\	.	8.ddT\	8ff#\	.	.	.	.	8.a/	8.ee\
8AA\J	.	.	16.ee\L	.	.	.	.	.	.
.	.	16cc#\Jk	.	.	.	.	.	16a/Jk	16ee\Jk
.	.	.	32ee\JJk	.	.	.	.	.	.
=19	=19	=19	=19	=19	=19	=19	=19	=19	=19
!	!	!LO:TX:a:t=P:problem=mixed beam	!LO:TX:a:t=P:problem=mixed beam	!	!	!	!	!	!
8D\L	.	8dd\L	8dd\L	8F#\	le-	8dd\	le-	4f#/	4dd\
8G\	.	8g/	8g/	8G\	-ta-	8ee\	-ta-	.	.
8A\J	.	8a/J	8a/J	8E\	-tus	8cc#\	-tus	8r	8r
=20	=20	=20	=20	=20	=20	=20	=20	=20	=20
!	!	!	!	!	!	!	!	!LO:N:vis=00	!LO:N:vis=00
4D\	.	16d/LL	8d/L	4F#\	sum	4dd\	sum	1.r	1.r
.	.	16a/J	.	.	.	.	.	.	.
.	.	8f#/	(16a/L	.	.	.	.	.	.
.	.	.	16f#/J)	.	.	.	.	.	.
8r	.	8d/J	8d/J	8r	.	8r	.	.	.
=21	=21	=21	=21	=21	=21	=21	=21	=21	=21
!	!	!LO:TX:a:t=P:problem=mixed beam	!LO:TX:a:t=P:problem=mixed beam	!	!	!	!	!	!
*	*	*	*	*	*ij	*	*	*	*
8D\L	.	8dd\L	8dd\L	8d\	le-	8ff#\	le-	.	.
8G\	.	8g/	8g/	8e\	-ta-	8gg\	-ta-	.	.
8A\J	.	8a/J	8a/J	8c#\	-tus	8ee\	-tus	.	.
!	!	!LO:LB:g=original	!	!	!	!	!	!	!
=22	=22	=22	=22	=22	=22	=22	=22	=22	=22
!	!	!LO:SIC:v:s=8dd	!	!	!	!	!	!	!
!	!	!LO:TX:a:t=P:problem=mixed beam	!LO:TX:a:t=P:problem=mixed beam	!	!	!	!	!	!
4D\	.	8ee\L	8dd\L	4d\	sum	4ff#\	sum	.	.
*	*	*	*	*	*Xij	*	*	*	*
.	.	8a/	8a/	.	.	.	.	.	.
8r	.	8d/J	8d/J	8r	.	8r	.	.	.
=23	=23	=23	=23	=23	=23	=23	=23	=23	=23
!	!	!LO:TX:a:t=P:problem=mixed beam	!	!LO:N:vis=00	!	!	!	!	!
8A\L	.	(16dd\LL	16dd\LL	1.r	.	(16dd\LL	in	.	.
.	.	16ff#\J)	16ff#\J	.	.	16ff#\JJ)	.	.	.
8F#\J	.	8aa\	8aa\	.	.	8aa\	his	.	.
8r	.	8a/J	8dd\J	.	.	8dd\	quae	.	.
!	!	!	!LO:LB:g=original	!	!	!LO:LB:g=original	!	!	!
=24	=24	=24	=24	=24	=24	=24	=24	=24	=24
!LO:TX:a:t=problem&colon;brak taktu	!	!	!LO:TX:a:t=P:problem=takt skreślony, ale powinien tu być	!	!	!	!	!	!
!	!	!	!	!	!	!	!	!LO:N:vis=00	!LO:N:vis=00
4.ryy	.	8e/	8cc#\	.	.	8cc#\	di-	1.r	1.r
.	.	4f#/	4dd\	.	.	8dd\	-cta	.	.
.	.	.	.	.	.	8r	.	.	.
=25	=25	=25	=25	=25	=25	=25	=25	=25	=25
8G\L	.	8d/L	(16b\LL	.	.	(16b\LL	in	.	.
.	.	.	16cc#\JJ)	.	.	16cc#\JJ)	.	.	.
8G\	.	8b/	4ddT\	.	.	8dd\	his	.	.
8G\J	.	8g/J	.	.	.	8dd\	quae	.	.
=26	=26	=26	=26	=26	=26	=26	=26	=26	=26
8r	.	8f#/L	(16a\LL	.	.	(16a\LL	di-	.	.
.	.	.	16cc#\JJ)	.	.	16cc#\JJ)	.	.	.
8F#\L	.	8a/	4ddT\	.	.	4dd\	-cta	.	.
8F#\J	.	8f#/J	.	.	.	.	.	.	.
=27	=27	=27	=27	=27	=27	=27	=27	=27	=27
!	!	!	!LO:TX:a:t=P:problem=mixed beam	!LO:N:vis=00	!	!	!	!	!
8r	.	8cc#\L	8a/L	1.r	.	8a\	di-	.	.
8C#/L	.	8ee\	8gg\	.	.	8gg\	-cta	.	.
8C#/J	.	8cc#\J	[>8ff#\J	.	.	8ff#\	sunt	.	.
=28	=28	=28	=28	=28	=28	=28	=28	=28	=28
!	!	!	!	!	!	!	!	!LO:N:vis=00	!LO:N:vis=00
8A\L	.	8dd\	8ff#\]	.	.	8ff#\	mi-	1.r	1.r
8A\J	.	4cc#\	4ee\	.	.	8ee\	-hi	.	.
8r	.	.	.	.	.	8r	.	.	.
=29	=29	=29	=29	=29	=29	=29	=29	=29	=29
8D\	.	(16dd\LL	(16dd\LL	.	.	(16dd\LL	in	.	.
.	.	16ff#\J)	16ff#\J)	.	.	16ff#\JJ)	.	.	.
8r	.	8aa\	8aa\	.	.	8aa\	Do-	.	.
8F#\	.	8dd\J	8dd\J	.	.	8dd\	-mum	.	.
=30	=30	=30	=30	=30	=30	=30	=30	=30	=30
!LO:TX:a:t=problem&colon;brak taktu	!	!	!LO:TX:a:t=P:problem=takt skreślony, ale powinien tu być	!	!	!	!	!	!
4.ryy	.	8e/	8cc#\	.	.	8cc#\	Do-	.	.
.	.	4f#/	4dd\	.	.	16dd\	-mi-	.	.
.	.	.	.	.	.	16dd\	-ni	.	.
.	.	.	.	.	.	8r	.	.	.
=31	=31	=31	=31	=31	=31	=31	=31	=31	=31
!LO:TX:a:t=P:problem=mixed beam	!	!	!	!LO:N:vis=00	!	!	!	!	!
8G/L	.	8d/L	(16b\LL	1.r	.	(16b\LL	in	.	.
.	.	.	16cc#\JJ)	.	.	16cc#\JJ)	.	.	.
8GG/	.	8g/	4ddT\	.	.	8dd\	Do-	.	.
8G/J	.	8b/J	.	.	.	8dd\	-mum	.	.
=32	=32	=32	=32	=32	=32	=32	=32	=32	=32
!	!	!	!	!	!	!	!	!LO:N:vis=0	!LO:N:vis=0
8r	.	8f#/	(16a\LL	.	.	16a\	Do-	2.r	2.r
.	.	.	16cc#\JJ)	.	.	16cc#\	-mi-	.	.
!	!	!	!	!	!	!LO:LB:g=original	!	!	!
8F#\L	.	4a/	4ddT\	.	.	4dd\	-ni	.	.
8F#\J	.	.	.	.	.	.	.	.	.
=33	=33	=33	=33	=33	=33	=33	=33	=33	=33
!	!	!	!LO:TX:a:t=P:problem=mixed beam	!	!	!	!	!	!
8C#/L	.	8cc#\L	8.a/L	.	.	8.a\	Do-	.	.
8C#/	.	8ee\	.	.	.	.	.	.	.
.	.	.	16gg\K	.	.	16gg\	-mi-	.	.
8D/J	.	8dd\J	[>8ff#\J	.	.	8ff#\	-ni	.	.
=34	=34	=34	=34	=34	=34	=34	=34	=34	=34
8A\L	.	8a/L	(8ff#\L]	.	.	8ff#\	i-	4.r	4.r
8A\J	.	8cc#/J	8ee\J)	.	.	16ee\	-bi-	.	.
.	.	.	.	.	.	16ee\	-mus	.	.
8r	.	8r	8r	.	.	8r	.	.	.
=35	=35	=35	=35	=35	=35	=35	=35	=35	=35
8D\L	.	8f#/L	32aa\LLL	4D\	Stan-	4dd\	Stan-	8d/L	8d/L
.	.	.	(32gg\	.	.	.	.	.	.
.	.	.	32ff#\)	.	.	.	.	.	.
.	.	.	32ee\JJJ	.	.	.	.	.	.
8F#\	.	8a/	32ff#\LLL	.	.	.	.	8d/	8d/
.	.	.	(32ee\	.	.	.	.	.	.
.	.	.	32dd\)	.	.	.	.	.	.
.	.	.	32cc#\JJJ	.	.	.	.	.	.
8D\J	.	8f#/J	32dd\LLL	8D\	-tes	8dd\	-tes	8d/J	8d/J
.	.	.	(32ccn\	.	.	.	.	.	.
.	.	.	32b\)	.	.	.	.	.	.
.	.	.	32a\JJJ	.	.	.	.	.	.
!	!	!LO:LB:g=original	!LO:LB:g=original	!LO:LB:g=original	!	!	!	!	!
=36	=36	=36	=36	=36	=36	=36	=36	=36	=36
!LO:TX:a:t=P:problem=mixed beam	!	!	!LO:TX:a:t=P:problem=mixed beam	!LO:SIC:v:s=8G	!	!	!	!	!
8G/L	.	8g/L	8b\L	8A\	e-	8dd\	e-	4d/	4d/
!	!	!	!	!LO:SIC:v:s=8GG	!	!	!	!	!
8GG/J	.	8b/	8dd\	8AA/	-rant	8dd\	-rat	.	.
8r	.	8dd/J	8g/J	8r	.	8r	.	8r	8r
=37	=37	=37	=37	=37	=37	=37	=37	=37	=37
!	!	!	!	!	!	!	!	!LO:N:vis=00	!LO:N:vis=00
8E\L	.	8g#X/L	32bb\LLL	(8E\L	pe-	4ee\	pe-	1.r	1.r
.	.	.	(32aa\	.	.	.	.	.	.
.	.	.	32gg#X\)	.	.	.	.	.	.
.	.	.	32ff#\JJJ	.	.	.	.	.	.
8G#X\	.	8b/	32gg#X\LLL	8G#X\J)	.	.	.	.	.
.	.	.	(32ff#\	.	.	.	.	.	.
.	.	.	32ee\	.	.	.	.	.	.
!	!	!	!LO:SIC:v:s=32dd#	!	!	!	!	!	!
.	.	.	32dd\JJJ)	.	.	.	.	.	.
8E\J	.	8g#/J	32ee\LLL	8E\	-des	8ee\	-des	.	.
.	.	.	(32ddn\	.	.	.	.	.	.
.	.	.	32cc#\)	.	.	.	.	.	.
.	.	.	32b\JJJ	.	.	.	.	.	.
=38	=38	=38	=38	=38	=38	=38	=38	=38	=38
!LO:TX:a:t=P:problem=mixed beam	!	!	!LO:TX:a:t=P:problem=mixed beam	!	!	!	!	!	!
8A\L	.	8a/	8cc#\L	8A\	no-	8ee\	no-	.	.
8AA\J	.	4cc#\	8ee\	8AA/	-stri	8ee\	-stri	.	.
8r	.	.	8a/J	8r	.	8r	.	.	.
=39	=39	=39	=39	=39	=39	=39	=39	=39	=39
!	!	!	!	!LO:SIC:l:s=in:v	!	!	!	!	!
8F#\L	.	8dd\L	8dd\L	8F#\	ni	8dd\	in	.	.
8G#X\	.	8dd\	8dd\	16G#X\	a-	16dd\	a-	.	.
.	.	.	.	16G#\	-tri-	16dd\	-tri-	.	.
8A\J	.	16cc#\L	16cc#\L	8A\	-js	8cc#\	-js	.	.
.	.	16aa\JJ	16ccc#\JJ	.	.	.	.	.	.
=40	=40	=40	=40	=40	=40	=40	=40	=40	=40
8D\L	.	8bb\L	8bb\L	(8D\L	tu-	4b\	tu-	.	.
8E\	.	16aa\L	(16aa\L	8E\J)	.	.	.	.	.
.	.	16gg#X\J	16gg#X\J)	.	.	.	.	.	.
8F#\J	.	8aa\J	8aa\J	8F#\	-js	8a\	-is	.	.
=41	=41	=41	=41	=41	=41	=41	=41	=41	=41
!LO:TX:a:t=P:problem=mixed beam	!	!	!	!	!	!	!	!	!
8D/L	.	8bb\L	16ddd\LL	8D\	Je-	8a\	Je-	8ee\L	8ee\L
.	.	.	16bb\J	.	.	.	.	.	.
!	!	!	!LO:SIC:v:s=8.gg#	!	!	!	!	!	!
8E/	.	8.aa\	8.gg\	8.E\	-ru-	8.a\	-ru-	8ee\	8ee\
8EE/J	.	.	.	.	.	.	.	8ee\J	8ee\J
!	!	!	!LO:SIC:v:s=16gg#	!	!	!	!	!	!
.	.	16gg#X\Jk	16gg\Jk	16E\	-sa-	16g#X\	-sa-	.	.
!	!	!	!	!	!	!LO:LB:g=original	!	!	!LO:LB:g=original
=42	=42	=42	=42	=42	=42	=42	=42	=42	=42
!	!	!LO:TX:a:t=P:problem=mixed beam	!LO:TX:a:t=P:problem=mixed beam	!	!	!	!	!	!
4AA/	.	8aa\L	8aa\L	4AA/	-lem	4a\	-lem	4a/	4a/
.	.	8e/	8e/	.	.	.	.	.	.
!	!	!	!	!	!	!	!	!LO:TX:b:t=cito Verte	!
8r	.	8A/J	8A/J	8r	.	8r	.	8r	8r
!	!	!	!	!	!	!	!	!LO:PB:g=original	!
=43	=43	=43	=43	=43	=43	=43	=43	=43	=43
!	!	!	!	!LO:N:vis=0	!	!	!	!LO:N:vis=00	!LO:N:vis=00
8A\L	.	8a/L	8a/L	2.r	.	8a\	le-	1.r	1.r
8D\	.	8d/	8d/	.	.	8b\	-ta-	.	.
8E\J	.	8e/J	8e/J	.	.	8g#X\	-tus	.	.
=44	=44	=44	=44	=44	=44	=44	=44	=44	=44
4AA/	.	8a/L	8a/L	.	.	4a\	sum	.	.
.	.	(16e/L	(16e/L	.	.	.	.	.	.
.	.	16c#/J)	16c#/J)	.	.	.	.	.	.
8r	.	8A/J	8A/J	.	.	8r	.	.	.
=45	=45	=45	=45	=45	=45	=45	=45	=45	=45
8A\L	.	8a/L	8a/L	8A\	le-	8cc#\	le-	.	.
8D\	.	8d/	8d/	8B\	-ta-	8dd\	-ta-	.	.
8E\J	.	8e/J	8e/J	8G#X\	-tus	8b\	-tus	.	.
=46	=46	=46	=46	=46	=46	=46	=46	=46	=46
!	!	!LO:TX:a:t=P:problem=mixed beam	!	!	!	!	!	!	!
8AA/	.	(16a\LL	(16a\LL	4A\	sum	4cc#\	sum	.	.
.	.	16cc#\J)	16cc#\J)	.	.	.	.	.	.
8r	.	8ee\	8ee\	.	.	.	.	.	.
8C#/	.	8a/J	8a\J	8r	.	8r	.	.	.
=47	=47	=47	=47	=47	=47	=47	=47	=47	=47
!	!	!	!	!LO:N:vis=00	!	!LO:N:vis=00	!	!LO:N:vis=00	!LO:N:vis=00
8E/L	.	8B/L	8g#X/L	1.r	.	1.r	.	1.r	1.r
8AA/J	.	8c#/J	8a/J	.	.	.	.	.	.
8r	.	8r	8r	.	.	.	.	.	.
!	!	!	!LO:LB:g=original	!	!	!	!	!	!
=48	=48	=48	=48	=48	=48	=48	=48	=48	=48
8r	.	(16ff#\LL	(16ff#\LL	.	.	.	.	.	.
.	.	16gg#X\JJ)	16gg#X\JJ)	.	.	.	.	.	.
!	!	!LO:LB:g=original	!	!	!	!	!	!	!
8d\L	.	4aaT\	4aaT\	.	.	.	.	.	.
8d\J	.	.	.	.	.	.	.	.	.
=49	=49	=49	=49	=49	=49	=49	=49	=49	=49
8r	.	(16ff#\LL	(16ee\LL	.	.	.	.	.	.
.	.	16gg#X\JJ)	16gg#X\JJ)	.	.	.	.	.	.
8c#\L	.	4aaT\	4aaT\	.	.	.	.	.	.
8c#\J	.	.	.	.	.	.	.	.	.
=50	=50	=50	=50	=50	=50	=50	=50	=50	=50
8B\L	.	8ff#\L	8bb\L	.	.	.	.	.	.
8B\	.	(16ff#\L	8ddd\	.	.	.	.	.	.
.	.	16gg#X\J)	.	.	.	.	.	.	.
8A\J	.	[8aa\J	[8ccc#\J	.	.	.	.	.	.
=51	=51	=51	=51	=51	=51	=51	=51	=51	=51
!	!	!	!	!	!	!LO:N:vis=00	!	!LO:N:vis=00	!LO:N:vis=00
8e\L	.	8aa\L]	8ccc#\L]	4.r	.	1.r	.	1.r	1.r
!	!	!LO:SIC:v:s=8gg#	!	!	!	!	!	!	!
16E\L	.	8gg\J	8bb\J	.	.	.	.	.	.
16F#\	.	.	.	.	.	.	.	.	.
16G#X\	.	8r	8r	.	.	.	.	.	.
16E\JJ	.	.	.	.	.	.	.	.	.
!	!	!	!	!LO:LB:g=original	!	!	!	!	!
=52	=52	=52	=52	=52	=52	=52	=52	=52	=52
8AA/L	.	8a/L	8a/L	(16A\LL	Je-	.	.	.	.
.	.	.	.	16c#\JJ)	.	.	.	.	.
8C#/	.	8c#/	8c#/	8e\	-ru-	.	.	.	.
8E/J	.	8e/J	8e/J	8G#X\	-sa-	.	.	.	.
=53	=53	=53	=53	=53	=53	=53	=53	=53	=53
4C#/	.	8a/L	8a/L	4A\	-lem	.	.	.	.
.	.	(16e/L	(16e/L	.	.	.	.	.	.
.	.	16c#/J)	16c#/J)	.	.	.	.	.	.
8r	.	8A/J	8A/J	8r	.	.	.	.	.
=54	=54	=54	=54	=54	=54	=54	=54	=54	=54
8r	.	8r	(16ff#\LL	(16F#\LL	quae	.	.	.	.
.	.	.	16gg#X\JJ)	16G#X\JJ)	.	.	.	.	.
8D/L	.	8ff#\L	4aaT\	4A\	ae-	.	.	.	.
8D/J	.	8ff#\J	.	.	.	.	.	.	.
=55	=55	=55	=55	=55	=55	=55	=55	=55	=55
!	!	!	!	!	!	!LO:N:vis=00	!	!LO:N:vis=00	!LO:N:vis=00
8r	.	8r	(16ee\LL	(16E\LL	-di-	1.r	.	1.r	1.r
.	.	.	16gg#X\JJ)	16G#X\JJ)	.	.	.	.	.
8C#/L	.	8ee\L	4aaT\	4A\	-fi-	.	.	.	.
8C#/J	.	8ee\J	.	.	.	.	.	.	.
=56	=56	=56	=56	=56	=56	=56	=56	=56	=56
!	!	!	!LO:SIC:v:s=8gg#	!	!	!	!	!	!
8r	.	8ee\L	8gg\L	8B\L	-ca-	.	.	.	.
8BB/L	.	(16ff#\L	8ddd\	8d\J	-tur	.	.	.	.
.	.	16gg#X\J)	.	.	.	.	.	.	.
8AA/J	.	[8aa\J	[8ccc#\J	8c#\	ut	.	.	.	.
=57	=57	=57	=57	=57	=57	=57	=57	=57	=57
8E\L	.	8aa\]	8ccc#\]	8c#\	Ci-	.	.	.	.
8E\J	.	[4gg#X\	[4bb\	16B\	-vi-	.	.	.	.
.	.	.	.	16B\	-tas	.	.	.	.
8r	.	.	.	8r	.	.	.	.	.
=58	=58	=58	=58	=58	=58	=58	=58	=58	=58
8E\L	.	8gg#X\L]	8bb\L]	16B\	cu-	.	.	.	.
.	.	.	.	16B\	-jus	.	.	.	.
8G#X\	.	8ee\	8gg#X\	8G#X\	par-	.	.	.	.
8E\J	.	[8gg#\J	[8bb\J	16B\	-ti-	.	.	.	.
.	.	.	.	16B\	-ci-	.	.	.	.
=59	=59	=59	=59	=59	=59	=59	=59	=59	=59
!	!	!	!	!	!	!LO:N:vis=00	!	!LO:N:vis=00	!LO:N:vis=00
8F#\L	.	8gg#\]	8bb\]	8B\	-pa-	1.r	.	1.r	1.r
16F#\L	.	4ff#\	4aa\	16A\	-ti-	.	.	.	.
16E\	.	.	.	16A\	-o	.	.	.	.
16D#X\	.	.	.	8r	.	.	.	.	.
16C#\JJ	.	.	.	.	.	.	.	.	.
!	!	!LO:LB:g=original	!	!	!	!	!	!	!
=60	=60	=60	=60	=60	=60	=60	=60	=60	=60
8BB/L	.	8ff#\L	8aa\L	16A\	e-	.	.	.	.
.	.	.	.	16A\	-jus	.	.	.	.
!	!	!	!	!LO:LB:g=original	!	!	!	!	!
!	!	!	!	!LO:SIC:l:s=in:v	!	!	!	!	!
8D#X/	.	8b\	8ff#\	8F#\	i	.	.	.	.
!	!	!	!	!LO:SIC:l:s=id-:v	!	!	!	!	!
8BB/J	.	[8ff#\J	8aa\J	8A\	nid-	.	.	.	.
!	!	!	!LO:LB:g=original	!	!	!	!	!	!
=61	=61	=61	=61	=61	=61	=61	=61	=61	=61
8E\L	.	8ff#\]	8aa\	8A\	-ip-	.	.	.	.
8E\J	.	4ee\	4gg#X\	8G#X\	-sum	.	.	.	.
8r	.	.	.	8r	.	.	.	.	.
=62	=62	=62	=62	=62	=62	=62	=62	=62	=62
8AA/	.	8cc#\	8aa\L	(16A\LL	Jl-	.	.	.	.
.	.	.	.	16c#\JJ	.	.	.	.	.
8r	.	8r	16ccc#\L	8e\)	.	.	.	.	.
.	.	.	16eee\J	.	.	.	.	.	.
8C#/	.	8cc#\	8aa\J	8A\	-luc	.	.	.	.
=63	=63	=63	=63	=63	=63	=63	=63	=63	=63
!LO:TX:a:t=P:problem=mixed beam	!	!	!	!	!	!	!	!	!
!	!	!	!	!	!	!LO:N:vis=00	!	!LO:N:vis=00	!LO:N:vis=00
8E/L	.	8b\	8gg#X\	8G#X\	e-	1.r	.	1.r	1.r
8AA/J	.	4cc#\	4aa\	8A\	-nim	.	.	.	.
8r	.	.	.	8r	.	.	.	.	.
=64	=64	=64	=64	=64	=64	=64	=64	=64	=64
8r	.	8r	(16ff#\LL	(16F#\LL	a-	.	.	.	.
.	.	.	16gg#X\JJ)	16G#X\JJ)	.	.	.	.	.
8D/L	.	8ff#\L	4aaT\	4AT\	-scen-	.	.	.	.
8D/J	.	8ff#\J	.	.	.	.	.	.	.
=65	=65	=65	=65	=65	=65	=65	=65	=65	=65
8r	.	8r	(16ee\LL	16E\LL	-de-	.	.	.	.
.	.	.	16gg#X\JJ)	16G#X\JJ	.	.	.	.	.
8C#/L	.	8ee\L	4aaT\	4AT\	-runt	.	.	.	.
8C#/J	.	8ee\J	.	.	.	.	.	.	.
=66	=66	=66	=66	=66	=66	=66	=66	=66	=66
8r	.	8ee\L	8bb\L	(8B\L	tri-	.	.	.	.
8BB/L	.	(16ff#\L	8ddd\	8d\J)	.	.	.	.	.
.	.	16gg#X\J)	.	.	.	.	.	.	.
8AA/J	.	8aa\J	(8ccc#\J	8c#\	-bus	.	.	.	.
=67	=67	=67	=67	=67	=67	=67	=67	=67	=67
!	!	!	!	!	!	!LO:N:vis=0	!	!LO:N:vis=00	!LO:N:vis=00
*	*	*	*	*	*ij	*	*	*	*
8r	.	(8ee\L	8ee\L)	(8E\L	tri-	2.r	.	1.r	1.r
8E\L	.	8gg#X\)	8bb\	8B\J)	.	.	.	.	.
8C#\J	.	8aa\J	8aa\J	8A\	-bus	.	.	.	.
=68	=68	=68	=68	=68	=68	=68	=68	=68	=68
8r	.	(8ee\L	8bb\L	(8B\L	tri-	.	.	.	.
8BB/L	.	16ff#\L)	8ddd\	8d\J)	.	.	.	.	.
.	.	16gg#X\J	.	.	.	.	.	.	.
8AA/J	.	[8aa\J	8ccc#\J	8c#\	-bus	.	.	.	.
*	*	*	*	*	*Xij	*	*	*	*
.	.	.	.	.	.	.	.	.	.
=69	=69	=69	=69	=69	=69	=69	=69	=69	=69
!	!	!	!LO:TX:a:t=P:problem=mixed beam	!	!	!	!	!	!
8E\L	.	8aa\L]	8ccc#\L	8c#\	Do-	4.r	.	.	.
8E\J	.	16gg#X\L	16bb\L	16B\	-mi-	.	.	.	.
.	.	16ee\	16gg#X\	16B\	-ni	.	.	.	.
!	!	!	!	!LO:LB:g=original	!	!	!	!	!
8r	.	16b\	16ee\	8r	.	.	.	.	.
.	.	16g#X\JJ	16e/JJ	.	.	.	.	.	.
=70	=70	=70	=70	=70	=70	=70	=70	=70	=70
8A\L	.	8cc#\L	8ee\L	16c#\	Te-	16ee\	Te-	.	.
.	.	.	.	16c#\	-sti-	16ee\	-sti-	.	.
8c#\	.	8a\	8cc#\	8A\	-mo-	8cc#\	-mo-	.	.
8A\J	.	[<8cc#\J	8ee\J	16c#\	-ni-	16ee\	-ni-	.	.
.	.	.	.	16c#\	-um	16ee\	-um	.	.
=71	=71	=71	=71	=71	=71	=71	=71	=71	=71
!	!	!	!	!	!	!	!	!LO:N:vis=00	!LO:N:vis=00
8B\L	.	8cc#\]	(8ee\	8c#\	J-	8ee\	Is-	1.r	1.r
16B\L	.	4b\	4dd\)	16B\	-sra-	16dd\	-ra-	.	.
16A\	.	.	.	16B\	-el	16dd\	-el	.	.
16G#X\	.	.	.	8r	.	8r	.	.	.
16F#\JJ	.	.	.	.	.	.	.	.	.
!	!	!LO:LB:g=original	!	!	!	!	!	!	!
=72	=72	=72	=72	=72	=72	=72	=72	=72	=72
8E\L	.	8b\L	8dd\L	8B\	ad	8dd\	ad	.	.
8G#X\	.	8b\	8dd\	8G#X\	con-	8b\	Con-	.	.
8E\J	.	[8b\J	[8dd\J	8B\	-fi-	8dd\	-fi-	.	.
=73	=73	=73	=73	=73	=73	=73	=73	=73	=73
8A\L	.	8b\]	8dd\]	8B\	-ten-	8dd\	-ten-	.	.
8A\J	.	4a\	4cc#\	8A\	-dum	8cc#\	-dum	.	.
8r	.	.	.	8r	.	8r	.	.	.
!	!	!	!LO:LB:g=original	!	!	!LO:LB:g=original	!	!	!
=74	=74	=74	=74	=74	=74	=74	=74	=74	=74
!LO:TX:a:t=P:problem=mixed beam	!	!	!	!	!	!	!	!	!
8A\L	.	8cc#\L	8aa\L	8A\	ad	8cc#\	ad	.	.
8AA\	.	8cc#\	8aa\	8A\	con-	8cc#\	Con-	.	.
8A\J	.	8cc#\J	8aa\J	8A\	-fi-	8cc#\	-fi-	.	.
=75	=75	=75	=75	=75	=75	=75	=75	=75	=75
!	!	!	!	!	!	!	!	!LO:N:vis=00	!LO:N:vis=00
8E\L	.	8b\L	8gg#X\L	16G#X\LL	-ten-	16b\LL	-ten-	1.r	1.r
.	.	.	.	16F#\	.	(16a\	.	.	.
8E\	.	8b\	8gg#\	16G#\	.	16b\	.	.	.
.	.	.	.	16A\	.	16cc#\)	.	.	.
8E\J	.	8b\J	8gg#\J	16G#\	.	16b\	.	.	.
.	.	.	.	16A\JJ	.	16cc#\JJ	.	.	.
=76	=76	=76	=76	=76	=76	=76	=76	=76	=76
8E\L	.	8dd\L	8bb\L	16B\LL	.	16dd\LL	.	.	.
.	.	.	.	16A\	.	(16cc#\	.	.	.
8E\	.	8dd\	8bb\	16B\	.	16dd\	.	.	.
.	.	.	.	16c#\	.	16ee\)	.	.	.
8E\J	.	8dd\J	8bb\J	16B\	.	16dd\	.	.	.
.	.	.	.	16c#\JJ	.	16ee\JJ	.	.	.
=77	=77	=77	=77	=77	=77	=77	=77	=77	=77
!LO:TX:a:t=P:problem=mixed beam	!	!LO:TX:a:t=P:problem=mixed beam	!	!	!	!	!	!	!
8A\L	.	16cc#\LL	16aa\LL	8A\	.	8cc#\	.	.	.
.	.	16b\	16gg#X\	.	.	.	.	.	.
8AA\J	.	16cc#\	16aa\	8A\	-dum	8cc#\	-dum	.	.
.	.	16cc#\	16ee\	.	.	.	.	.	.
8r	.	16a\	16cc#\	8r	.	8r	.	.	.
.	.	16A/JJ	16a\JJ	.	.	.	.	.	.
!	!	!	!	!LO:LB:g=original	!	!	!	!	!
=78	=78	=78	=78	=78	=78	=78	=78	=78	=78
8A\L	.	8a/L	8cc#\L	8A\	ad	8cc#\	ad	.	.
8A\	.	8e/	8cc#\	8E\	con-	8cc#\	con-	.	.
8Gn\J	.	8a/J	8cc#\J	8A\	-fi-	8cc#\	-fi-	.	.
=79	=79	=79	=79	=79	=79	=79	=79	=79	=79
!	!	!	!	!	!	!	!	!LO:N:vis=00	!LO:N:vis=00
8.F#\L	.	8.a/L	8dd\L	8.A\	-ten-	8.dd\	-ten-	1.r	1.r
.	.	.	8dd\	.	.	.	.	.	.
16E\K	.	16g/K	.	16Gn\	-dum	16dd\	-dum	.	.
8D\J	.	8f#/J	8dd\J	8F#\	No-	8dd\	No-	.	.
=80	=80	=80	=80	=80	=80	=80	=80	=80	=80
!LO:TX:a:t=P:problem=mixed beam	!	!	!	!	!	!	!	!	!
8G\L	.	16b\LL	16bb\LL	16B\	-mi-	16dd\	-mi-	.	.
.	.	16dd\J	16ff#\JJ	16B\	-ni	16dd\	-ni	.	.
8A\	.	8.dd\	8.eeT\L	8.A\	Do-	8.dd\	Do-	.	.
8AA\J	.	.	.	.	.	.	.	.	.
.	.	16cc#\Jk	16ee\Jk	16A\	-mi-	16cc#\	-mi-	.	.
=81	=81	=81	=81	=81	=81	=81	=81	=81	=81
!	!	!LO:TX:a:t=P:problem=mixed beam	!LO:TX:a:t=P:problem=mixed beam	!	!	!	!	!	!
4D\	.	8dd\L	8dd\L	4F#\	-ni	4dd\	-ni	.	.
.	.	8a/	8a/	.	.	.	.	.	.
8r	.	8d/J	8d/J	8r	.	8r	.	.	.
=82	=82	=82	=82	=82	=82	=82	=82	=82	=82
!	!	!LO:N:vis=00	!LO:N:vis=00	!	!	!	!	!	!
8D\L	.	1.r	1.r	8F#\	le-	8dd\	le-	.	.
!	!	!	!	!	!	!LO:TX:a:t=P:korekta:problem	!	!	!
8G\	.	.	.	8G\	-ta-	8ee 8cc#\	-ta-	.	.
8A\J	.	.	.	8A\	-tus	8cc#\	-tus	.	.
=83	=83	=83	=83	=83	=83	=83	=83	=83	=83
!	!	!	!	!	!	!	!	!LO:N:vis=00	!LO:N:vis=00
4D\	.	.	.	4D/	sum	4dd\	sum	1.r	1.r
8r	.	.	.	8r	.	8r	.	.	.
!	!	!	!	!	!	!LO:LB:g=original	!	!	!
=84	=84	=84	=84	=84	=84	=84	=84	=84	=84
*	*	*	*	*	*ij	*	*	*	*
8D\L	.	.	.	8d\	le-	8ff#\	le-	.	.
8G\	.	.	.	8G\	-ta-	8gg\	-ta-	.	.
8A\J	.	.	.	8A\	-tus	8ee\	-tus	.	.
=85	=85	=85	=85	=85	=85	=85	=85	=85	=85
8D\L	.	.	.	4D\	sum	4ff#\	sum	.	.
*	*	*	*	*	*Xij	*	*	*	*
16A\L	.	.	.	.	.	.	.	.	.
16G\	.	.	.	.	.	.	.	.	.
16F#\	.	.	.	8r	.	8r	.	.	.
16E\JJ	.	.	.	.	.	.	.	.	.
=86	=86	=86	=86	=86	=86	=86	=86	=86	=86
!	!	!LO:N:vis=00	!LO:N:vis=00	!	!	!	!	!	!
16D\LL	.	1.r	1.r	16D\	Qui-	16dd\	Qui-	.	.
16E\J	.	.	.	16E\	-a	16dd\	-a	.	.
8F#\	.	.	.	8F#\	Jl-	8dd\	il-	.	.
8D\J	.	.	.	16E\	-lic	16dd\	-lic	.	.
.	.	.	.	16D\	se-	16dd\	se-	.	.
=87	=87	=87	=87	=87	=87	=87	=87	=87	=87
!	!	!	!	!	!	!	!	!LO:N:vis=00	!LO:N:vis=00
8A\L	.	.	.	(8A\L	-de-	4cc#\	-de-	1.r	1.r
8G\	.	.	.	8G\J)	.	.	.	.	.
8F#\J	.	.	.	8F#\	-runt	8dd\	-runt	.	.
!	!	!	!	!LO:LB:g=original	!	!	!	!	!
=88	=88	=88	=88	=88	=88	=88	=88	=88	=88
8.G\L	.	.	.	8.G\	ſe-	8.b\	ſe-	.	.
16F#\L	.	.	.	16F#\	-des	16a\	-des	.	.
16G\	.	.	.	16G\	in	16b\	in	.	.
16E\JJ	.	.	.	16E\	ju-	16cc#\	Ju-	.	.
=89	=89	=89	=89	=89	=89	=89	=89	=89	=89
8.F#\L	.	.	.	8.F#\	-di-	8.dd\	-di-	.	.
16E\K	.	.	.	16E\	-ci-	16dd\	-ci-	.	.
8D\J	.	.	.	8D\	-o	8dd\	-o	.	.
=90	=90	=90	=90	=90	=90	=90	=90	=90	=90
!	!	!LO:N:vis=00	!LO:N:vis=00	!	!	!	!	!	!
8r	.	1.r	1.r	8r	.	8r	.	.	.
8F#\L	.	.	.	8F#\	ſe-	8dd\	ſe-	.	.
8F#\J	.	.	.	8F#\	-des	8cc#\	-des	.	.
=91	=91	=91	=91	=91	=91	=91	=91	=91	=91
!	!	!	!	!	!	!	!	!LO:N:vis=0	!LO:N:vis=0
8.G\L	.	.	.	8.G\	ſu-	8.b\	su-	2.r	2.r
16E\K	.	.	.	16E\	-per	16cc#\	-per	.	.
!	!	!	!	!	!	!LO:SIC:v:l:s=domum	!	!	!
8F#\J	.	.	.	8D\	Do-	8dd\	Cor-	.	.
=92	=92	=92	=92	=92	=92	=92	=92	=92	=92
!LO:TX:a:t=P:problem=mixed beam	!	!	!	!	!	!	!	!	!
8G\L	.	.	.	8G\	-mu(m)	8b\	-nu	.	.
!	!	!	!	!LO:TX:a:t=P:problem=mixed beam	!	!	!	!	!
8A\	.	.	.	(>8A\L	Da-	4cc#\	Da-	.	.
8AA\J	.	.	.	8AA/J)	.	.	.	.	.
=93	=93	=93	=93	=93	=93	=93	=93	=93	=93
4D/	.	.	.	4D\	-vid	4dd\	-vid	4.r	4.r
8r	.	.	.	8r	.	8r	.	.	.
!	!	!	!	!	!	!LO:LB:g=original	!	!	!
=94	=94	=94	=94	=94	=94	=94	=94	=94	=94
!	!	!LO:TX:a:t=P:problem=mixed beam	!LO:TX:a:t=P:problem=mixed beam	!	!	!	!	!	!
8BB/L	.	8bb\L	8bb\L	8BB/	Ro-	8dd\	Ro-	8f#/L	8f#/L
8D/	.	8b/	8b/	8D/	-ga-	8dd\	-ga-	8f#/	8f#/
8BB/J	.	8f#/J	8dd/J	8BB/	-te	8dd\	-te	8f#/J	8f#/J
=95	=95	=95	=95	=95	=95	=95	=95	=95	=95
4F#\	.	8a#X\L	8cc#\L	4F#\	quae	4cc#\	quae	4f#/	4f#/
.	.	8cc#\	8ff#\	.	.	.	.	.	.
8F#\	.	8ff#\J	8cc#\J	8F#\	ad	8cc#\	ad	8r	8r
!	!	!LO:LB:g=original	!	!	!	!	!	!	!
=96	=96	=96	=96	=96	=96	=96	=96	=96	=96
!	!	!	!LO:TX:a:t=P:problem=mixed beam	!	!	!	!	!	!
!	!	!	!	!	!	!	!	!LO:N:vis=0	!LO:N:vis=0
8.G\L	.	8.ff#\L	8.b/L	8.G\	pa-	8.b\	pa-	2.r	2.r
16G\L	.	16ee\L	16bb\L	16G\	-cem	16b\	-cem	.	.
16G\	.	16ee\	16bb\	16G\	sunt	16b\	sunt	.	.
16G\JJ	.	16ee\JJ	16bb\JJ	16G\	Je-	16b\	Je-	.	.
=97	=97	=97	=97	=97	=97	=97	=97	=97	=97
!	!	!LO:TX:a:t=P:problem=mixed beam	!LO:TX:a:t=P:problem=mixed beam	!	!	!	!	!	!
8.F#\L	.	8.ff#\L	8.aa#X\L	8.F#\	-ru-	8.a#X\	-ru-	.	.
16F#\L	.	16a#X/K	16ff#\K	16F#\	-sa-	16a#\	-sa-	.	.
16F#\	.	8a#/J	8f#/J	8F#\	-lem	8a#\	-lem	.	.
16F#\JJ	.	.	.	.	.	.	.	.	.
=98	=98	=98	=98	=98	=98	=98	=98	=98	=98
!	!	!LO:SIC:v:s=8a#	!	!	!	!	!	!	!
8F#\L	.	8a/L	8cc#\L	8F#\	et	8cc#\	et	8f#/L	8f#/L
8A#X\	.	8cc#/	8ff#\	8A#X\	a-	8cc#\	a-	8f#/	8f#/
!	!	!LO:SIC:v:s=8a#	!	!LO:LB:g=original	!	!	!	!	!
8F#\J	.	8a/J	8cc#\J	8F#\	-bun-	8cc#\	-bun-	8f#/J	8f#/J
=99	=99	=99	=99	=99	=99	=99	=99	=99	=99
!LO:TX:a:t=P:problem=mixed beam	!	!	!	!	!	!	!	!	!
8B\L	.	8.b\L	8.dd\L	8B\	-dan-	8dd\	-dan-	4f#/	4f#/
8B\	.	.	.	16B\	-ti-	16dd\	-ti-	.	.
.	.	16dd\K	16ff#\K	16B\	-a	16dd\	-a	.	.
8BB\J	.	8dd\J	8bb\J	8B\	di-	8dd\	di-	8r	8r
=100	=100	=100	=100	=100	=100	=100	=100	=100	=100
!LO:TX:a:t=P:problem=mixed beam	!	!	!	!	!	!	!	!	!
16D/LL	.	8b/L	16ff#\LL	16D\LL	-li-	8b\	-li-	8f#/L	8f#/L
16E/J	.	.	16dd\JJ	16E\JJ	.	.	.	.	.
8F#/	.	8.b/	8.cc#\L	8F#\	-gen-	8b\	-gen-	8f#/	8f#/
8FF#/J	.	.	.	16FF#/	-ti-	16a#X\	-ti-	8f#/J	8f#/J
.	.	16a#X/Jk	16cc#\Jk	16FF#/	-bus	16a#\	-bus	.	.
=101	=101	=101	=101	=101	=101	=101	=101	=101	=101
!LO:TX:a:t=P:problem=mixed beam	!	!	!	!	!	!	!	!	!LO:TX:a:t=P:problem=mixed beam
8BB\L	.	8b\L	8b\L	8BB/	te	8b\	te	8f#/L	8f#/L
8F#\	.	8dd\	8dd\	8F#\	Fi-	8dd\	Fi-	8a/	8dd\
8A\J	.	8cc#\J	8cc#\J	8A\	-at	8cc#\	-at	8a/J	8ee\J
!	!	!	!	!	!	!LO:LB:g=original	!	!	!
=102	=102	=102	=102	=102	=102	=102	=102	=102	=102
!LO:TX:a:t=P:problem=mixed beam	!	!	!	!	!	!	!	!	!
8D\L	.	8dd\L	8dd\L	8D\	pax	8dd\	pax	8f#/L	8dd\L
8d\	.	8an\	8ff#\	8d\	fi-	8ff#\	fi-	8d/	8ff#\
8A\J	.	8cc#\J	8ee\J	8A\	-at	8ee\	-at	8a/J	8ee\J
=103	=103	=103	=103	=103	=103	=103	=103	=103	=103
!LO:TX:a:t=P:problem=mixed beam	!	!LO:TX:a:t=P:problem=mixed beam	!	!	!	!	!	!LO:TX:a:t=P:problem=mixed beam	!
8d\L	.	8dd\L	8ff#\L	8d\	pax	8ff#\	pax	8d/L	8ff#\L
!	!	!	!	!LO:SIC:l:s=in:v	!	!	!	!	!
8d\	.	8ff#\	8ddd\	8d\	ni	8ff#\	in	8dd\	8ff#\
8D\J	.	8a/J	8ff#\J	8D/	Vir-	8ff#\	Vir-	8a\J	8ff#\J
=104	=104	=104	=104	=104	=104	=104	=104	=104	=104
4A\	.	4cc#\	4ee\	4A\	-tu-	4ee\	-tu-	4a/	4ee\
8B\	.	8dd\	8dd\	8B\	-te	8dd\	-te	8dd\	8dd\
=105	=105	=105	=105	=105	=105	=105	=105	=105	=105
!LO:TX:a:t=P:problem=mixed beam	!	!	!	!	!	!	!	!	!
8A\L	.	(16cc#\LL	(16cc#\LL	8A\	tu-	8cc#\	tu-	8a/L	8ee\L
.	.	16dd\JJ)	16dd\JJ)	.	.	.	.	.	.
8AA\J	.	4cc#\	4ee\	8AA/	-a	8cc#\	-a	8a/J	8ee\J
8r	.	.	.	8r	.	8r	.	8r	8r
=106	=106	=106	=106	=106	=106	=106	=106	=106	=106
8F#\L	.	8ee\L	8ccc#\L	8A\	et	8ee\	et	8a/L	8ee\L
8A\	.	8ee\	8ccc#\	8c#\	a-	8ee\	a-	8a/	8ee\
8F#\J	.	8ee\J	8ccc#\J	8A\	-bun-	8ee\	-bun-	8a/J	8ee\J
=107	=107	=107	=107	=107	=107	=107	=107	=107	=107
8.d\L	.	8.ff#\L	8.ddd\L	8.d\	-dan-	8.ff#\	-dan-	8.a/L	8.ff#\L
16A\L	.	16ee\L	16ee\L	16A\	-ti-	16ee\	-ti-	16a/Jk	16ee\L
16B\	.	16dd\	16dd\	16B\	-a	16dd\	-a	16dd\LL	16dd\
16G\JJ	.	16b\JJ	16ee\JJ	16G\	in	16ee\	in	16ee\JJ	16ee\JJ
!	!	!	!	!LO:LB:g=original	!	!	!	!	!
=108	=108	=108	=108	=108	=108	=108	=108	=108	=108
8.A\L	.	8.e/L	8.cc#\L	8.A\	tur-	8.cc#\	tur-	4a/	4ee\
16G\K	.	16cc#/K	16ee\K	16G\	-ri-	16cc#\	-ri-	.	.
8F#\J	.	8dd/J	8ff#\J	8F#\	-bus	8dd\	-bus	8dd\	8ff#\
!	!	!LO:LB:g=original	!	!	!	!	!	!	!
=109	=109	=109	=109	=109	=109	=109	=109	=109	=109
!LO:TX:a:t=P:problem=mixed beam	!	!	!	!LO:TX:a:t=P:problem=mixed beam	!	!	!	!LO:TX:a:t=P:problem=mixed beam	!
8G\L	.	8ee\L	16bb\LL	(>8G\L	tu-	(4dd\	tu-	8dd\L	8ff#\
.	.	.	16ff#\JJ	.	.	.	.	.	.
!	!	!	!	!	!	!	!	!	!LO:TX:b:t=cito Verte
8A\	.	8.dd\	4eeT\	8A\)	.	.	.	8.a/	4ee\
8AA\J	.	.	.	8AA/J	.	8cc#\)	.	.	.
.	.	16cc#\Jk	.	.	.	.	.	16a/Jk	.
!	!	!	!	!	!	!	!	!	!LO:PB:g=original
=110	=110	=110	=110	=110	=110	=110	=110	=110	=110
!	!	!LO:TX:a:t=P:problem=mixed beam	!LO:TX:a:t=P:problem=mixed beam	!	!	!	!	!	!
4D\	.	8dd\L	8dd\L	4D\	-js	4dd\	-is	4f#/	4dd\
.	.	8a/	8a/	.	.	.	.	.	.
8r	.	8d/J	8d/J	8r	.	8r	.	8r	8r
=111	=111	=111	=111	=111	=111	=111	=111	=111	=111
!	!	!LO:N:vis=00	!LO:N:vis=00	!	!	!	!	!LO:N:vis=00	!LO:N:vis=00
8r	.	1.r	1.r	8r	.	8r	.	1.r	1.r
8G\L	.	.	.	8G\	Pro-	8b\	Pro-	.	.
8A\J	.	.	.	8A\	-pter	8ccn\	-pter	.	.
!	!	!	!	!	!	!LO:PB:g=original	!	!	!
=112	=112	=112	=112	=112	=112	=112	=112	=112	=112
8B\L	.	.	.	(8B\L	Do-	(8dd\L	Fra-	.	.
8A\	.	.	.	8A\J)	.	8ccn\J)	.	.	.
8G\J	.	.	.	8G\	-mum	8b\	-tres	.	.
=113	=113	=113	=113	=113	=113	=113	=113	=113	=113
8F#\L	.	.	.	8.F#\	Do-	8a\	me-	.	.
8D\	.	.	.	.	.	8a\	-os	.	.
.	.	.	.	16F#\	-mi-	.	.	.	.
8G\J	.	.	.	8G\	-ni	8b\	et	.	.
=114	=114	=114	=114	=114	=114	=114	=114	=114	=114
4E\	.	.	.	4E\	De-	8.ccn\	pro-	.	.
.	.	.	.	.	.	16b\	-xi-	.	.
8F#\	.	.	.	8F#\	-j	(16ccn\LL	-mos	.	.
.	.	.	.	.	.	16a\JJ)	.	.	.
=115	=115	=115	=115	=115	=115	=115	=115	=115	=115
!LO:TX:a:t=P:problem=mixed beam	!	!LO:N:vis=0	!LO:N:vis=0	!	!	!	!	!LO:N:vis=00	!LO:N:vis=00
8G/L	.	2.r	2.r	8G\	no-	8b\	me-	1.r	1.r
8GG/J	.	.	.	8G\	-stri	8b\	-os	.	.
16r	.	.	.	16r	.	16r	.	.	.
16G\	.	.	.	16G\	quae-	16ee\	lo-	.	.
=116	=116	=116	=116	=116	=116	=116	=116	=116	=116
8A\L	.	.	.	8.A\	-si-	4cc#X\	-que-	.	.
8G\	.	.	.	.	.	.	.	.	.
.	.	.	.	16G\	-vi	.	.	.	.
8F#\J	.	.	.	8F#\	bo-	8dd\	-bar	.	.
=117	=117	=117	=117	=117	=117	=117	=117	=117	=117
!LO:TX:a:t=P:problem=mixed beam	!	!	!	!	!	!	!	!	!
8G\L	.	4.r	4.r	8G\	-na	8gg\	pa-	.	.
!	!	!	!	!LO:TX:a:t=P:problem=mixed beam	!	!	!	!	!
8A\	.	.	.	8A\L	ti-	8ff#\	-cem	.	.
8AA\J	.	.	.	8AA/J	.	8ee\	de	.	.
!	!	!	!	!LO:PB:g=original	!	!	!	!	!
=118	=118	=118	=118	=118	=118	=118	=118	=118	=118
8D\L	.	8d/L	8d/L	16D\	-bi	16dd\	te	.	.
.	.	.	.	16F#\	le-	16dd\	le-	.	.
8G\	.	8g/	8g/	8G\	-ta-	(8ee\	-ta-	.	.
8A\J	.	8a/J	8a/J	8E\	-tus	8cc#\)	.	.	.
!	!	!	!LO:LB:g=original	!	!	!	!	!LO:LB:g=original	!
=119	=119	=119	=119	=119	=119	=119	=119	=119	=119
!	!	!LO:TX:a:t=P:problem=mixed beam	!	!	!	!	!	!LO:N:vis=00	!LO:N:vis=00
4D\	.	8dd\L	8dd\L	4F#\	sum	4dd\	-tus	1.r	1.r
.	.	16a/L	16a\L	.	.	.	.	.	.
.	.	16f#/J	16f#\J	.	.	.	.	.	.
8r	.	8d/J	8d\J	8r	.	8r	.	.	.
=120	=120	=120	=120	=120	=120	=120	=120	=120	=120
!	!	!LO:TX:a:t=P:problem=mixed beam	!LO:TX:a:t=P:problem=mixed beam	!	!	!	!	!	!
*	*	*	*	*	*ij	*	*	*	*
8D\L	.	8dd\L	8dd\L	8B\	le-	8ff#\	le-	.	.
8G\	.	8g/	8g/	8G\	-ta-	8gg\	-ta-	.	.
8A\J	.	8a/J	8a/J	8A\	-tus	8ee\	-tus	.	.
*clefC4	*	*	*	*	*	*	*	*	*
!	!	!	!	!	!	!LO:LB:g=original	!	!	!
=121	=121	=121	=121	=121	=121	=121	=121	=121	=121
8.A\L	.	4d/	4d/	4D\	sum	4ff#\	sum	.	.
*	*	*	*	*	*Xij	*	*	*	*
16B\L	.	.	.	.	.	.	.	.	.
16c#\	.	8r	8r	8r	.	8r	.	.	.
16d\JJ	.	.	.	.	.	.	.	.	.
=122	=122	=122	=122	=122	=122	=122	=122	=122	=122
!	!	!LO:N:vis=00	!LO:N:vis=00	!	!	!	!	!	!
4e\	.	1.r	1.r	8.c#\	Glo-	8.ee\	Glo-	.	.
.	.	.	.	16c#\	-ri-	16ee\	-ri-	.	.
8e\	.	.	.	8A\	-a	8ee\	-a	.	.
=123	=123	=123	=123	=123	=123	=123	=123	=123	=123
!LO:TX:a:t=problem&colon;brak taktu	!	!	!	!	!	!	!	!LO:N:vis=00	!LO:N:vis=00
4.ryy	.	.	.	4G#X\	Pa-	4ee\	Pa-	1.r	1.r
.	.	.	.	8G#\	-tri	8b\	-tri	.	.
=124	=124	=124	=124	=124	=124	=124	=124	=124	=124
8.c#\L	.	.	.	8.A\	Glo-	8.cc#\	Glo-	.	.
16B\K	.	.	.	16A\	-ri-	16cc#\	-ri-	.	.
8A\J	.	.	.	8E\	-a	8b\	-a	.	.
=125	=125	=125	=125	=125	=125	=125	=125	=125	=125
8.G#X/L	.	.	.	8.E\	Fi-	8.b\	Fi-	.	.
16F#/K	.	.	.	16F#\	-li-	16b\	-li-	.	.
8E/J	.	.	.	8G#X\	-o	8b\	-o	.	.
=126	=126	=126	=126	=126	=126	=126	=126	=126	=126
!	!	!LO:N:vis=00	!LO:N:vis=00	!	!	!	!	!	!
8r	.	1.r	1.r	8r	.	8r	.	.	.
8F#/L	.	.	.	8A\	et	8dd\	et	.	.
8F#/J	.	.	.	8A\	spi-	8dd\	Spi-	.	.
=127	=127	=127	=127	=127	=127	=127	=127	=127	=127
!	!	!	!	!	!	!	!	!LO:N:vis=0	!LO:N:vis=0
4G#X/	.	.	.	4B\	-ri-	4dd\	-ri-	2.r	2.r
8A/	.	.	.	8E\	-tu-	8cc#\	-tu-	.	.
!	!	!	!	!LO:LB:g=original	!	!	!	!	!
=128	=128	=128	=128	=128	=128	=128	=128	=128	=128
!LO:TX:a:t=P:problem=mixed beam	!	!	!	!	!	!	!	!	!
8A\L	.	.	.	8A\	-j	8cc#\	-j	.	.
8e\	.	.	.	(8A\L	San-	4b\	San-	.	.
8E\J	.	.	.	8G#X\J)	.	.	.	.	.
=129	=129	=129	=129	=129	=129	=129	=129	=129	=129
4A\	.	.	.	4A\	-cto	4a\	-cto	4.r	4.r
8r	.	.	.	8r	.	8r	.	.	.
*clefF4	*	*	*	*	*	*	*	*	*
=130	=130	=130	=130	=130	=130	=130	=130	=130	=130
8D\	.	(16dd\LL	16dd\LL	4D\	ſi-	(16dd\LL	ſi-	16f#/LL	16dd\LL
.	.	16ff#\J)	16ff#\J	.	.	16ff#\J	.	16dd/JJ	16ff#\JJ
8r	.	8aa\	8aa\	.	.	8aa\J)	.	8ff#\L	8aa\L
8F#\	.	8dd\J	8dd\J	8F#\	-cut	8dd\	-cut	8dd\J	8ff#\J
=131	=131	=131	=131	=131	=131	=131	=131	=131	=131
8A\L	.	8e/	8cc#\	8A\	e-	8cc#\	e-	8a/L	8ee\L
8F#\J	.	4f#/	4dd\	8F#\	-rat	8dd\	-rat	8d/J	8dd\J
8r	.	.	.	8r	.	8r	.	8r	8r
!	!	!	!	!	!	!LO:LB:g=original	!	!	!
=132	=132	=132	=132	=132	=132	=132	=132	=132	=132
!	!	!	!	!	!	!	!	!LO:N:vis=0	!LO:N:vis=0
8r	.	(16b\LL	(16b\LL	4G\	in	(16dd\LL	in	2.r	2.r
.	.	16cc#\JJ)	16cc#\JJ)	.	.	16ee\JJ)	.	.	.
8G\L	.	4ddT\	4ddT\	.	.	4ff#\	prin	.	.
8G\J	.	.	.	8G\	prin-	.	.	.	.
=133	=133	=133	=133	=133	=133	=133	=133	=133	=133
8r	.	(16a\LL	(16a\LL	16F#\	-ci-	16a\	ci-	.	.
.	.	16cc#\JJ)	16cc#\JJ)	16F#\	-pi-	16cc#\	-pi-	.	.
8F#\L	.	4ddT\	4ddT\	4F#\	-o	4dd\	-o	.	.
8F#\J	.	.	.	.	.	.	.	.	.
=134	=134	=134	=134	=134	=134	=134	=134	=134	=134
8C#/L	.	8a\L	8ee\L	8C#/	et	8ee\	et	8a/L	8ee\L
8C#/	.	8ee\	8gg\	8C#/	nunc	8gg\	nunc	8ee/	8gg\
8D/J	.	[8dd\J	8ff#\J	8D/	et	8ff#\	et	8dd/J	8ff#\J
=135	=135	=135	=135	=135	=135	=135	=135	=135	=135
8A\L	.	8dd\L]	8ff#\L	8A\	sem-	8ff#\	ſem-	8dd/L	8ff#\L
8A\J	.	8cc#\J	8ee\J	8A\	-per	8ee\	-per	8a/J	8ee\J
8r	.	8r	8r	8r	.	8r	.	8r	8r
!	!	!LO:LB:g=original	!	!	!	!	!	!	!
=136	=136	=136	=136	=136	=136	=136	=136	=136	=136
8F#\L	.	8a\L	32aa\LLL	4F#\	et	4dd\	et	8d/L	8d/L
.	.	.	(32gg\	.	.	.	.	.	.
.	.	.	32ff#\)	.	.	.	.	.	.
.	.	.	32ee\JJJ	.	.	.	.	.	.
8F#\	.	8dd\	32ff#\LLL	.	.	.	.	8d/	8d/
.	.	.	(32ee\	.	.	.	.	.	.
.	.	.	32dd\)	.	.	.	.	.	.
.	.	.	32cc#\JJJ	.	.	.	.	.	.
8F#\J	.	8a\J	32dd\LLL	8F#\	in	8dd\	in	8d/J	8d/J
.	.	.	(32ccn\	.	.	.	.	.	.
.	.	.	32b\)	.	.	.	.	.	.
.	.	.	32a\JJJ	.	.	.	.	.	.
=137	=137	=137	=137	=137	=137	=137	=137	=137	=137
!	!	!LO:TX:a:t=P:problem=mixed beam	!LO:TX:a:t=P:problem=mixed beam	!	!	!	!	!	!
4G\	.	8b\L	8b\L	8.G\	Sae-	8dd\	Sae-	4d/	4d/
.	.	8dd\	8dd\	.	.	8.dd\	-cu-	.	.
.	.	.	.	16G\	-cu-	.	.	.	.
8r	.	8g/J	8g/J	8G\	-la	.	.	8r	8r
.	.	.	.	.	.	16dd\	-la	.	.
=138	=138	=138	=138	=138	=138	=138	=138	=138	=138
!	!	!	!	!	!	!	!	!LO:N:vis=0	!LO:N:vis=0
8G#X\L	.	8b\L	32bb\LLL	4G#X\	ſae-	4ee\	ſae-	2.r	2.r
.	.	.	32aa\	.	.	.	.	.	.
.	.	.	32gg#X\	.	.	.	.	.	.
.	.	.	32ff#\JJJ	.	.	.	.	.	.
!	!	!	!LO:LB:g=original	!	!	!	!	!	!
8G#\	.	8ee\	32gg#X\LLL	.	.	.	.	.	.
.	.	.	32ff#\	.	.	.	.	.	.
.	.	.	32ee\	.	.	.	.	.	.
!	!	!	!LO:SIC:v:s=32dd#	!	!	!	!	!	!
.	.	.	32dd\JJJ	.	.	.	.	.	.
8G#\J	.	8b\J	32ee\LLL	8G#\	-cu-	8ee\	-cu-	.	.
.	.	.	(32ddn\	.	.	.	.	.	.
.	.	.	32cc#\)	.	.	.	.	.	.
.	.	.	32b\JJJ	.	.	.	.	.	.
!	!	!	!	!LO:LB:g=original	!	!	!	!	!
=139	=139	=139	=139	=139	=139	=139	=139	=139	=139
!LO:TX:a:t=P:problem=mixed beam	!	!LO:TX:a:t=P:problem=mixed beam	!LO:TX:a:t=P:problem=mixed beam	!	!	!	!	!	!
8A\L	.	8cc#\L	8cc#\L	8A\	-lo-	8ee\	-lo-	.	.
8AA\J	.	8ee\	8ee\	8AA/	-rum	8ee\	-rum	.	.
8r	.	8a/J	8a/J	8r	.	8r	.	.	.
=140	=140	=140	=140	=140	=140	=140	=140	=140	=140
8r	.	8r	8ee\L	8r	.	(8ee\L	a-	8r	8r
8E\L	.	(16b\LL	(8gg\	8F#\	a-	8gg\J)	.	8ee\L	8gg\L
.	.	16cc#\J)	.	.	.	.	.	.	.
8D\J	.	8dd\J	8ff#\J)	8D\	-men	8ff#\	-men	8dd\J	8ff#\J
=141	=141	=141	=141	=141	=141	=141	=141	=141	=141
8r	.	8r	(8a\L	8r	.	(8a\L	a-	8r	8r
*	*	*	*	*	*ij	*	*	*	*
8A\L	.	8cc#\L	8ee\)	8A\	a-	8ee\J)	.	8a/L	8ee\L
8F#\J	.	8a\J	8dd\J	8F#\	-men	8dd\	-men	8d/J	8dd\J
=142	=142	=142	=142	=142	=142	=142	=142	=142	=142
8r	.	8r	(8a\L	8r	.	(8ee\L	a-	8r	8r
8E\L	.	(16b\LL	8gg\)	8E\	a-	8gg\J)	.	8ee\L	8gg\L
.	.	16cc#\J)	.	.	.	.	.	.	.
8D\J	.	8a\J	8ff#\J	8D\	-men	8ff#\	-men	8dd\J	8ff#\J
=143	=143	=143	=143	=143	=143	=143	=143	=143	=143
8r	.	8r	8a\L	8r	.	(8a\L	a-	8r	8r
8A\L	.	8cc#\L	8ee\	8A\	a-	8ee\J)	.	8a/L	8ee\L
8F#\J	.	8a\J	8dd\J	8F#\	-men	8dd\	-men	8d/J	8dd\J
*	*	*	*	*	*Xij	*	*	*	*
!	!	!	!	!	!	!LO:LB:g=original	!	!	!
=144	=144	=144	=144	=144	=144	=144	=144	=144	=144
!LO:TX:a:t=P:problem=mixed beam	!	!	!	!LO:TX:a:t=P:problem=mixed beam	!	!	!	!	!
8G\L	.	8dd\L	16bb\LL	8G\L	a-	(4dd\	a-	8dd/L	8ff#\L
.	.	.	16gg\JJ	.	.	.	.	.	.
8A\	.	8.dd\	8.ee\L	8A\	.	.	.	8.a/	8.ee\
8AA\J	.	.	.	8AA/J	.	8cc#\)	.	.	.
!	!	!LO:TX:a:t=cis	!	!	!	!	!	!	!
.	.	16cc#\Jk	16dd\Jk	.	.	.	.	16a/Jk	16dd\Jk
=145	=145	=145	=145	=145	=145	=145	=145	=145	=145
8D\	.	8dd\	8dd\	8D\	-men	8dd\	-me	8f#/	8dd\
8r	.	8r	8r	8r	.	8r	.	8r	8r
8A\	.	8ee\	8ccc#\	8A\	a-	8ee\	a-	8a/	8ee\
=146	=146	=146	=146	=146	=146	=146	=146	=146	=146
4D\	.	4ff#\	4ddd\	8D\	-men	4ff#\	-men	4f#/	4dd\
.	.	.	.	4r	.	.	.	.	.
!LO:TX:b:t=Sequitur Nisi Domine	!	!	!LO:TX:b:i:t=Sequitur Nisi Dominus	!	!	!	!	!	!
8r	.	8r	8r	.	.	8r	.	8r	8r
==	==	==	==	==	==	==	==	==	==
*-	*-	*-	*-	*-	*-	*-	*-	*-	*-
!!!system-decoration: [g1][g2][g3]s7
!!!RDF**kern: > = above
!!!RDF**kern: < = below
!!!ENC: Marta Lawrence
!!!END: 2020-11-05
!!!ENC: Krzysztof Stępień
!!!END: 2020-05-23
